X:263
T:Margaret's Waltz
M:3/4
L:1/4
R:Waltz
K:AMaj
|:c|EFA/2B/2|c2c|B/2A/2FA|B2c|
E3/2F/2 A/2B/2|c3/2d/2e|c2 (3B/2c/2B/2)|A2:|:
c/2d/2|e3/2f/2 g/2e/2|a2a|f/2e/2df|e2 (3B/2c/2B/2)|
A3/2B/2 c/2d/2|e2c|B/2A/2FA|B2c/2d/2|
e3/2f/2 g/2e/2|agf|edc|B2c|
E3/2F/2 A/2B/2|c3/2d/2e|c2B|A2:|
